X:31
T:Pas du loup
C:trad
A:Limousin
O:France
M:2/4
L:1/8
Q:1/8=220
K:G
DB/2G/2 DB/2G/2|DB BA|DA/2F/2 DA/2F/2|DA G2:|
|:dc/2B/2 AB/2c/2| de ed|dc/2B/2 AB/2c/2|de d2:||
